X:73
T:Kas-a-barh/An Dro
C:Perroches: Midi Breton 
M:4/4
L:1/8
K:G
A2Bc d3c|A2B2 c2B2|A2Bc d2dc|A2c2 B4:|A2Bc d3c|\
B2c2 A2G2|:c2BA B2c2|d2cB A2G2|c2BA B2c2|d2cB A4:|
